X:130
T:Dixe Hoedown
C:Briggs http://www.youtube.com/watch?v=VZiikTEum0o&feature=channel_page
N:Transcribed by Larry Tanner
R:bluegrass
L:1/8
Q:1/4=180
M:4/4
K:C
z6 dc |: "G"BA Bc BA GD | "C"EG AB c2 dc | "G"BA Bc BA ^FG | "D"AG ^FE D2 dc | 
"G"BA Bc BA GD | "C"EG AB c2 dc | "G"BA GB "D"AG ^FA |1 "G"G^F GA G2 dc :|2 "G"G2 d2 e2 ^f2 | 
|: g^f ga ge de | "Bm"^fe fg fe de | "C"ed e^f ga ge | "G"d2 dd d2 Bd | "D"cd cB AG ^FE | 
ag ^fe dc BA | "G"GA GE DC B,A, |1 G,2 d2 e2 ^f2 :|2 G,8 | z8 | z8 | z8 | z8 | 
z8 | z8 | 


